X:99
T:Drums and Guns
C:Roy Watrous
M:2/4
L:1/16
K:Bm
zF|BFdF BFdF|Bcde f2de|fbag fede|f2fg fedc|BFdF BFdF|
Bcde f2de|fbag fede|f2f2B2::z2|a2fg a2gf|Te2f2 g2ef|gAfA eAfA|
gfed cedc|BFdF BFdF|Bcde f2de|fbag fede|f2f2B2:|
